!!!!SEGMENT: T658_Hin-w77p35m62-70.krn
!!!COM: Hindemith, Paul
!!!OTL: V: Fuge: Moderato (Fugue: Moderate)
!!!AGN: Instrumental
!!!AGN-sub: Keyboard
!!!CNT: German
!!!ODT: 1942
!!!OPR: Sonata for Two Pianos, Four Hands
!!!filename: T658_Hin-w77p35m62-70.krn
**kern	**kern	**dynam	**kern	**kern	**dynam
*grp:A	*grp:A	*	*grp:B	*grp:B	*
*part2	*part2	*	*part1	*part1	*
*staff4	*staff3	*	*staff2	*staff1	*
*ICklav	*ICklav	*	*ICklav	*ICklav	*
*Ipiano	*Ipiano	*	*Ipiano	*Ipiano	*
*I"Piano 2	*I"Piano 2	*	*I"Piano 1	*I"Piano 1	*
*I'pf	*I'pf	*	*I'pf	*I'pf	*
*clefF4	*clefG2	*	*clefF4	*clefG2	*
*k[]	*k[]	*	*k[]	*k[]	*
*C:	*C:	*	*C:	*C:	*
!!LO:TX:tempo:a:t=[Moderate]\n[[half]=100&#8211;108]
*M6/4	*M6/4	*	*M6/4	*M6/4	*
=62	=62	=62	=62	=62	=62
!LO:T:n=1:b	!	!	!	!LO:TX:t=[[half]=104]	!LO:DY:ed=brack
!LO:T:n=2:a	!	!	!	!	!
1.GGG_ 1.GG_	4r	.	2%3r	(2een	p
.	2a	p	.	.	.
.	.	.	.	2dd)	.
.	4d	.	.	.	.
.	4e	.	.	4r	.
.	[4B	.	.	(4d	.
=63	=63	=63	=63	=63	=63
1.GGG] 1.GG]	4B]	.	2%3r	2cc	.
.	(4g	.	.	.	.
.	4e	.	.	2b-X)	.
.	4f#X	.	.	.	.
.	4g#X	.	.	4r	.
.	4a	.	.	(4d	.
=64	=64	=64	=64	=64	=64
[1.GGG [1.GG	2d)	.	2%3r	2a	.
.	(4cc	.	.	2g)	.
.	2dd)	.	.	.	.
.	.	.	.	4r	.
.	(4g	.	.	(4B	.
=65	=65	=65	=65	=65	=65
1.GGG_ 1.GG_	4b-X	.	2%3r	2c)	.
.	2cc)	.	.	.	.
.	.	.	.	2d	.
.	2f	.	.	.	.
.	.	.	.	2e	.
.	4e	.	.	.	.
=66	=66	=66	=66	=66	=66
1.GGG_ 1.GG_	(2a	.	2%3r	2f#X	.
.	4g)	.	.	2g	.
.	2c	.	.	.	.
.	.	.	.	2a	.
.	4B	.	.	.	.
=67	=67	=67	=67	=67	=67
*grp:A	*grp:A	*	*grp:B	*grp:A	*
1.GGG_ 1.GG_	2e	.	4r	1b	p
.	.	.	2D	.	.
.	2c	.	.	.	.
.	.	.	4GG	.	.
.	2a	.	4AA	2ccT	.
.	.	.	[4EE	.	.
=68	=68	=68	=68	=68	=68
1.GGG_ 1.GG_	2f#X	.	4EE]	1dd	.
.	.	.	(<4C	.	.
.	2e	.	4AA	.	.
.	.	.	4BB	.	.
.	2b	.	4C#X	2eet	.
.	.	.	4D	.	.
=69	=69	=69	=69	=69	=69
1.GGG_ 1.GG_	2a	.	2GG)	1dd	.
.	2d	.	(4F	.	.
.	.	.	2G)	.	.
.	2cc	.	.	2ggt	.
.	.	.	(4C	.	.
=70	=70	=70	=70	=70	=70
1.GGG] 1.GG]	2b-X	>	4E-X	2.dd	>
.	.	.	2F)	.	.
.	2a	.	.	.	.
.	.	.	2BB-X	4ee	.
.	2een	.	.	2ccT	.
.	.	]]	4AA	.	]]
=	=	=	=	=	=
*-	*-	*-	*-	*-	*-
!!!system-decoration: [({(s1,s2)})][({(s3,s4)})]
!!!RDF**kern: > = above
!!!RDF**kern: < = below
!!!EED: Claudio de Freitas
!!!EEV: 2021/09/02
!!!EED2: Daniel Wright
!!!EEV2: 2022/03/04
!!!EED3: Bryan Bell
!!!EEV3: 2023/06/09
!!!Suter_Work_ID: Hin-77
!!!Suter_Example_Number: 658
!!!Suter_Example_ID: Hin-77/35/62-70
!!!Premiere_Location: New York,United States
!!!Other_Tsigs: none
!!!Full_Unit_Duration: 4:50
!!!First_Publication_Year: 1942
!!!First_Public_Performance_Year: 1942
!!!Example_Total_Measures: 9
!!!Example_Timestamp_Duration: 14
!!!Example_Start_Tsig_Type: simple triple
!!!Example_Start_Tsig_Mean_Beat_Rate: 104
!!!Example_Start_Tsig_Beat_Rate: 104
!!!Example_Start_Tsig_Beat: half
!!!Example_Start_Tsig: 3/2
!!!Example_Start_Timestamp: 1:32
!!!Example_Start_Tempo_Expression: [Moderate]
!!!Example_Start_Notated_Beat_Rate: [100-108]
!!!Example_Start_Notated_Beat: [half]
!!!Example_Start_Measure: 62
!!!Example_Metadata_Validated: Y
!!!Example_End_Timestamp: 1:46
!!!Example_End_Measure: 70
!!!Example_Dataset: T
!!!Editorial_Comments: Example Start Notated Beat and Example Start Notated Beat Rate [half=100-108] based on most recent notated beat rate (SWFU, m. 1). Example Start Tempo Expression [Moderate] based on most recent notated tempo expression (SWFU, m. 1).
!!!Death_Place: Frankfurt,Germany
!!!Death_Date: 28-Dec-1963
!!!Changing_Tsig: no
!!!Birth_Place: Hanau,Germany
!!!Birth_Date: 16-Nov-1895
!!!Audio_Example_Quarter_Note_Tempo:
!!!Audio_Example_Duration:
